Source/HTML/PIC/check.svg

<svg width="18" height="18" viewBox="0 0 18 18" fill="none" xmlns="http://www.w3.org/2000/svg">
<path d="M7.78543 13.9676L6.72477 15.0282L7.78543 16.0889L8.84609 15.0282L7.78543 13.9676ZM15.6923 3.93939L6.72477 12.9069L8.84609 15.0282L17.8136 6.06071L15.6923 3.93939ZM8.8461 12.9069L3.06067 7.12144L0.939334 9.24275L6.72477 15.0282L8.8461 12.9069Z" fill="#445368"/>
</svg>

<svg width="18" height="18" fill="none" xmlns="http://www.w3.org/2000/svg"><path d="M7.785 13.968l-1.06 1.06 1.06 1.06 1.061-1.06-1.06-1.06zm7.907-10.029l-8.967 8.968 2.121 2.121 8.968-8.967-2.122-2.122zm-6.846 8.968L3.061 7.12.939 9.243l5.786 5.785 2.121-2.121z" fill="#445368"/></svg>
